src/lib/packages/icons/src/assets/filled/angles-right-small.svg

<svg width="24" height="24" viewBox="0 0 24 24" fill="none" xmlns="http://www.w3.org/2000/svg">
<path d="M17.7071 12.7071L13.7071 16.7071C13.5121 16.9021 13.256 17 13 17C12.744 17 12.488 16.9021 12.293 16.7071C11.902 16.3161 11.902 15.684 12.293 15.293L15.586 12L12.293 8.70707C11.902 8.31607 11.902 7.68401 12.293 7.29301C12.684 6.90201 13.3161 6.90201 13.7071 7.29301L17.7071 11.293C18.0981 11.684 18.0981 12.3161 17.7071 12.7071ZM11.7071 11.293L7.70707 7.29301C7.31607 6.90201 6.68401 6.90201 6.29301 7.29301C5.90201 7.68401 5.90201 8.31607 6.29301 8.70707L9.58597 12L6.29301 15.293C5.90201 15.684 5.90201 16.3161 6.29301 16.7071C6.48801 16.9021 6.74404 17 7.00004 17C7.25604 17 7.51207 16.9021 7.70707 16.7071L11.7071 12.7071C12.0981 12.3161 12.0981 11.684 11.7071 11.293Z" fill="currentColor"/>
</svg>

<svg xmlns="http://www.w3.org/2000/svg" width="24" height="24" fill="none"><path fill="currentColor" d="m17.707 12.707-4 4a.997.997 0 0 1-1.414 0 .999.999 0 0 1 0-1.414L15.586 12l-3.293-3.293a.999.999 0 1 1 1.414-1.414l4 4a.999.999 0 0 1 0 1.414Zm-6-1.414-4-4a.999.999 0 1 0-1.414 1.414L9.586 12l-3.293 3.293a.999.999 0 1 0 1.414 1.414l4-4a.999.999 0 0 0 0-1.414Z"/></svg>
